X:1
T:Title
%%score { ( 1 3 ) | ( 2 4 ) }
L:1/8
Q:1/4=100
M:4/4
K:F
V:1 treble nm="Grand Piano"
V:3 treble 
V:2 bass 
V:4 bass 
V:1
 F2 C2 A2 F2 | d2 c>=B c4 | [CFA]3 [CFA] [B,FB]2 [CFA]2 | [DFG]2 [Fd]2 F2 z2 | F2 C2 A2 F2 | %5
w: J.~Lyddon~Harris * * *|||||
 d2 c>=B c2 [CAc][Ad] | e2 c2 A2 d2 | [Ec]8 | [Ec]3 [DEB] [CEA]2 [B,EG]2 | [A,F]2 [B,DF]2 [A,CF]4 | %10
w: |||||
 [^Fd]3 [Fc] [FB]2 [CFA]2 | [B,G]2 [C^FA]2 [DGB]4 | [CEG]2 .[CEA]2 [CFc]3 c | d2 A2 B2 [DA][DG] | %14
w: ||||
 [CF]2 [FA]2 G3 F | F8 |] %16
w: ||
V:2
 F,2 C,2 A,2 F,2 | D2 C>=B, C4 | F,3 F, D,2 C,2 | B,,2 [=B,,G,]2 z2 E2 | F,2 C,2 A,2 F,2 | %5
 D2 C>=B, C2 F,[^F,C] | [G,CG]2 [G,CE]2 [G,=B,F]2 [G,B,F]2 | [C,C]8 | [C,G,]3 C, C,2 C,2 | %9
 F,2 F,2 F,4 | [D,A,]3 [D,D] [D,D]2 D,2 | G,,2 D,2 G,4 | C,2 z[K:treble] B[K:bass] A,,3 [A,CF] | %13
 [^F,A,D]2 [D,F,D]2 [G,D]2 [B,,G,][B,,G,] | [C,A,]2 [C,A,]2 [C,B,]2 [C,B,]2 | [F,A,]8 |] %16
V:3
 x8 | x8 | x8 | z4 [G,G]4 | x8 | x8 | x8 | x8 | x8 | x8 | x8 | x8 | x8 | x8 | z4 F2 E2 | x8 |] %16
V:4
 x8 | x8 | x8 | z4 C,4 | x8 | x8 | x8 | x8 | x8 | x8 | x8 | x8 | z2 C,2[K:treble][K:bass] z4 | x8 | %14
 x8 | x8 |] %16

